assets/icons/producto-negocio.svg

<svg width="69" height="69" viewBox="0 0 69 69" fill="none" xmlns="http://www.w3.org/2000/svg">
<path d="M18.8165 36.3704C19.3057 40.0388 21.2657 42.9797 24.4962 44.8836C28.3959 47.1819 34.3473 47.9808 39.728 47.9808C41.7628 47.9808 43.7194 47.8652 45.4519 47.6782L45.5028 47.6714C46.2875 47.5864 47.1639 47.481 47.6089 47.3281C48.3087 47.0867 48.7299 46.4237 48.6586 45.6791C48.5838 44.9244 48.0301 44.3464 47.2794 44.2444C47.2285 44.2376 47.1809 44.2376 47.1299 44.2444C35.577 45.4956 27.8965 44.2954 24.3026 40.6814C22.4173 38.7843 21.6462 36.1664 22.013 32.8958C22.6449 27.2623 26.0554 21.3738 31.1508 17.0866C31.769 17.2668 32.3737 17.4946 32.958 17.719C34.7345 18.3888 36.5757 19.0823 38.7701 18.4908C40.4244 18.0454 41.5929 16.9303 42.4422 15.9409H46.7461C51.9604 19.1027 57.7657 27.9661 57.5279 34.8371C57.4057 38.3865 55.7446 40.9806 52.5922 42.5479C52.4122 42.6363 52.12 42.7383 51.8075 42.8437C50.8428 43.1701 49.749 43.5441 49.3753 44.3804C49.2598 44.6422 49.1681 45.0604 49.3957 45.5839C49.5587 45.9579 49.8339 46.2299 50.1974 46.3727C51.0568 46.7127 52.1812 46.2163 52.9217 45.8899L53.1459 45.7913C59.9432 42.9049 62.2463 36.6322 59.6272 28.1327C58.0545 23.0261 54.5488 18.0352 49.9698 14.3566C50.5778 13.4862 50.785 12.4017 50.5201 11.341C50.2483 10.236 49.518 9.34525 48.5227 8.86248C48.6891 8.34571 48.9133 7.79494 49.1477 7.22037C49.8611 5.47286 50.5982 3.66755 49.9154 2.12404C49.5214 1.23328 48.7197 0.580517 47.473 0.12834C47.4051 0.104542 47.3338 0.0909424 47.2624 0.0909424H32.1733C32.1087 0.0909424 32.0442 0.101142 31.983 0.121541C29.9856 0.767507 28.9394 2.39262 29.2553 4.35772C29.2927 4.58551 29.4421 4.96969 29.7003 5.62585C29.7173 5.67005 29.7343 5.71425 29.7547 5.76184C26.5174 4.6331 23.0355 4.80989 20.0157 6.28882C19.7677 6.41121 17.8824 7.49575 17.5529 7.91053C17.2098 8.34231 17.1181 8.99167 17.3253 9.56964C17.5053 10.0728 17.879 10.4196 18.3546 10.5216C19.2208 10.7086 19.8458 10.2224 20.3486 9.83483C20.5252 9.69544 20.695 9.56624 20.8581 9.47445C23.5587 7.94793 26.7042 7.81194 29.4625 9.08687L39.5514 14.3872C38.6036 15.3969 37.2924 15.7607 35.8657 15.3901C34.687 15.0842 33.4165 14.5606 32.1869 14.054C31.0828 13.5984 29.9415 13.1293 28.8409 12.8029C28.8171 12.7961 28.7933 12.7893 28.7695 12.7859C27.1288 12.5037 26.762 14.2648 26.5683 15.2099C26.5106 15.4887 26.4562 15.7539 26.3883 15.9477C25.128 19.6467 22.3731 22.1184 18.8301 22.7304C18.4531 22.7949 18.0251 22.8085 17.6072 22.8187C17.2064 22.8289 16.792 22.8425 16.4115 22.9003C15.7389 23.0023 15.1954 23.5191 15.0527 24.1855C14.9203 24.8144 15.1716 25.4196 15.7151 25.7732C16.5168 26.2934 18.2255 26.2016 20.8003 25.508C19.9647 27.4901 19.0849 30.0502 18.8573 32.787C18.3138 32.5592 17.7737 32.2906 17.2166 32.0085C16.4183 31.6073 15.5962 31.1959 14.7164 30.8967C11.632 29.8428 8.49667 29.8768 5.46661 29.9074C4.99443 29.9108 4.52226 29.9176 4.04669 29.9176V15.6587H12.4711C13.2252 15.6587 16.7954 12.6261 16.8259 12.5955C17.383 11.9971 17.468 11.3851 17.1011 10.6712C16.8225 10.1306 16.4115 9.95042 16.1194 9.89603C15.0799 9.69884 13.8978 10.7426 12.8583 11.6605C12.5696 11.9155 12.2469 12.2011 12.0465 12.3405H2.45693C1.72659 12.3405 1.00984 13.2109 1.00304 13.2177C0.914723 13.3264 0.86377 13.4658 0.86377 13.6086V31.8385C0.86377 32.0119 0.938502 32.1819 1.06759 32.2974L1.78773 32.9468C1.89304 33.042 2.02892 33.0998 2.17159 33.1032C3.34353 33.1576 4.55283 33.1304 5.72477 33.1066C7.7935 33.0624 9.93017 33.0182 11.9004 33.416C13.7042 33.7798 15.2905 34.5957 16.9754 35.4593C17.5733 35.7653 18.1915 36.0848 18.8199 36.3772L18.8165 36.3704ZM47.4594 12.2657C47.4425 12.5479 47.259 12.7009 46.899 12.7349C46.454 12.7757 43.4069 12.7723 42.6392 12.7043C42.6222 12.6771 42.6018 12.6499 42.5781 12.6227C42.3573 12.3235 42.0312 11.8849 41.5556 11.7455H47.242C47.3473 11.8033 47.473 12.0175 47.456 12.2657H47.4594ZM35.4173 8.5599C35.098 8.4817 34.0552 7.89693 33.8547 7.65214C33.6407 7.23397 32.479 4.14693 32.4043 3.81375C32.3635 3.47716 32.5197 3.35817 32.6352 3.30717L46.6544 3.27657C46.882 3.28677 47.028 3.42617 47.0518 3.64376C46.9431 3.90894 46.7835 4.36452 46.5321 5.06828C46.1924 6.03043 45.5232 7.92753 45.1971 8.5327L35.4139 8.5565L35.4173 8.5599Z" fill="#4CAD36"/>
<path d="M68.7072 53.1859L68.7004 53.1044C68.6733 52.795 68.6393 52.37 68.2317 52.0096C67.5863 51.435 66.2071 51.4452 64.0195 51.5234C63.2144 51.554 62.3889 51.5846 61.9372 51.5234C57.2698 47.8618 52.6839 46.8487 47.9214 48.4228C47.3677 48.6064 46.6951 48.9464 45.9818 49.3033C45.2005 49.6977 44.3139 50.1431 43.8519 50.2179C42.9347 50.3641 41.8443 50.3029 40.6928 50.2349C39.0656 50.1431 37.3808 50.0445 35.9744 50.5409C33.994 51.2379 32.4654 53.016 32.0544 55.0117L18.7248 51.554C18.6841 51.5438 18.6399 51.537 18.5957 51.5336C16.0616 51.4384 14.4685 53.1553 14.0099 54.9199C13.5615 56.6402 14.1084 58.8806 16.3334 60.0026C17.8994 60.7947 19.7167 61.3965 21.4729 61.9779C22.8895 62.4471 24.3569 62.9332 25.6342 63.5044C25.6817 63.5248 25.7293 63.5418 25.7802 63.5486C26.5615 63.6846 27.2647 63.2902 27.5263 62.5763C27.798 61.8317 27.5059 61.0225 26.8129 60.6146C26.8027 60.6078 26.7891 60.601 26.7755 60.5942C25.4066 59.904 23.827 59.3872 22.3018 58.8908C20.7868 58.3945 19.2174 57.8811 17.9333 57.2147C17.1181 56.7932 16.9482 56.154 17.0603 55.6984C17.169 55.2598 17.6038 54.7567 18.4667 54.7397L34.5579 58.986C34.6292 59.003 34.7006 59.0098 34.7753 59.003C36.3243 58.8534 38.1213 58.9452 39.8571 59.0336C41.8579 59.1356 43.9266 59.241 45.7134 58.9894C46.3385 58.901 46.8922 58.5475 47.1639 58.0647C47.3915 57.6601 47.4085 57.1909 47.2149 56.7456C47.2115 56.7354 46.7121 55.8208 46.1618 55.8208H35.1863C35.2882 55.117 35.5396 54.5867 35.9473 54.2093C37.0241 53.2097 39.137 53.3151 41.1785 53.4171C42.4014 53.4783 43.5564 53.5361 44.5415 53.3695C45.1937 53.2573 46.0871 52.8052 47.0314 52.3292C47.6361 52.0232 48.2611 51.707 48.7061 51.5506C53.309 49.9391 56.8486 51.5982 60.7482 54.5867C60.8569 54.6683 60.986 54.7125 61.1219 54.7125H65.5141V61.9609C64.9434 61.9677 64.3524 61.9507 63.7783 61.9303C62.8849 61.8997 61.9609 61.8725 61.0743 61.9405C57.9933 62.1853 55.1603 62.7836 52.419 63.3616C47.0892 64.4836 42.0549 65.5443 35.9235 63.9022C35.1592 63.6982 34.2454 63.3242 33.3622 62.9604C32.2106 62.4879 31.1236 62.0425 30.2064 61.8793C28.739 61.6141 28.3313 62.4097 28.2192 62.9026C27.9067 64.2626 28.756 64.6705 29.4387 65.0003C33.2807 66.8532 38.5527 68.0228 42.911 68.0228C43.2744 68.0228 43.6345 68.016 43.9844 67.999C47.0926 67.8528 50.2993 67.166 53.4007 66.4996C55.9891 65.9455 58.6659 65.3743 61.1932 65.1431C62.1919 65.0513 63.2755 65.0853 64.3218 65.1193C65.3782 65.1533 66.4687 65.1873 67.5183 65.0989C67.6032 65.0921 67.6814 65.0683 67.7561 65.0275C68.3166 64.7317 68.6767 64.1674 68.697 63.5588C68.697 63.535 68.697 63.5146 68.697 63.4942C68.5883 61.9371 68.6529 60.2406 68.7174 58.6019C68.7854 56.7932 68.8601 54.9233 68.7004 53.1859H68.7072Z" fill="#4CAD36"/>
<path d="M39.3476 34.6773C38.9399 35.0173 38.3353 35.1907 37.5336 35.1907C36.7761 35.1907 36.1714 35.0003 35.7264 34.6195C35.4105 34.3509 35.1694 33.9736 35.0029 33.4874C34.8738 33.1066 34.5137 32.855 34.1129 32.8924L33.3316 32.9706C32.8221 33.0216 32.4552 33.5112 32.5877 34.0076C32.8357 34.9357 33.2773 35.6701 33.9125 36.2174C34.7515 36.9382 35.9506 37.2986 37.5132 37.2986C38.5867 37.2986 39.4835 37.1456 40.2002 36.8464C40.9204 36.5438 41.4741 36.0848 41.8681 35.4661C42.2621 34.8473 42.4558 34.1843 42.4558 33.4772C42.4558 32.6952 42.2927 32.0391 41.9598 31.5087C41.6303 30.9783 41.1751 30.5601 40.5942 30.2542C40.0134 29.9482 39.1132 29.6524 37.9005 29.3668C36.6878 29.0812 35.9235 28.8058 35.6076 28.5406C35.3596 28.3333 35.2373 28.0817 35.2339 27.7893C35.2339 27.4697 35.3664 27.2147 35.6279 27.0209C36.039 26.7217 36.6063 26.5721 37.3298 26.5721C38.033 26.5721 38.5595 26.7115 38.9094 26.9903C39.1438 27.1739 39.3238 27.4391 39.4495 27.7825C39.5786 28.1327 39.942 28.3435 40.3157 28.3265L41.1513 28.2891C41.6949 28.2653 42.0855 27.7383 41.936 27.2113C41.7458 26.5449 41.3857 25.9806 40.8558 25.5216C40.0711 24.8416 38.9026 24.5017 37.3536 24.5051C36.4024 24.5051 35.594 24.6512 34.9214 24.9368C34.2522 25.2224 33.7359 25.6406 33.3826 26.1914C33.0259 26.7387 32.8493 27.3269 32.8493 27.9593C32.8493 28.9384 33.2297 29.768 33.9872 30.4479C34.5273 30.9307 35.4649 31.3387 36.8033 31.6685C37.8427 31.9269 38.5085 32.1071 38.8007 32.209C39.2287 32.362 39.5276 32.5388 39.6975 32.7428C39.8673 32.9468 39.9556 33.1984 39.9556 33.4874C39.9556 33.943 39.7518 34.3407 39.3442 34.6807L39.3476 34.6773Z" fill="#4CAD36"/>
<path d="M46.206 24.4949H46.1754C45.7814 24.4949 45.4417 24.7634 45.35 25.1476L42.7071 36.2378C42.5815 36.7716 42.9857 37.285 43.5326 37.285C43.9232 37.285 44.2663 37.0164 44.358 36.6356L47.0314 25.5454C47.1605 25.0116 46.7563 24.4983 46.206 24.4983V24.4949Z" fill="#4CAD36"/>
</svg>

<svg version="1.2" xmlns="http://www.w3.org/2000/svg" viewBox="0 0 69 69" width="69" height="69">
	<style>
		.s0 { fill: #0865d8 } 
	</style>
	<path class="s0" d="m18.82 36.37c0.49 3.67 2.45 6.61 5.68 8.51 3.9 2.3 9.85 3.1 15.23 3.1 2.03 0 3.99-0.11 5.72-0.3l0.05-0.01c0.79-0.08 1.66-0.19 2.11-0.34 0.7-0.24 1.12-0.91 1.05-1.65-0.08-0.76-0.63-1.33-1.38-1.44q-0.08-0.01-0.15 0c-11.55 1.26-19.23 0.06-22.83-3.56-1.88-1.9-2.65-4.51-2.29-7.78 0.63-5.64 4.05-11.53 9.14-15.81q0.93 0.28 1.81 0.63c1.77 0.67 3.62 1.36 5.81 0.77 1.65-0.44 2.82-1.56 3.67-2.55h4.31c5.21 3.16 11.02 12.03 10.78 18.9-0.12 3.55-1.79 6.14-4.94 7.71-0.18 0.09-0.47 0.19-0.78 0.29-0.97 0.33-2.06 0.7-2.43 1.54-0.12 0.26-0.21 0.68 0.02 1.2q0.25 0.57 0.8 0.79c0.86 0.34 1.98-0.15 2.72-0.48l0.23-0.1c6.79-2.89 9.1-9.16 6.48-17.66-1.58-5.1-5.08-10.09-9.66-13.77 0.61-0.87 0.81-1.96 0.55-3.02-0.27-1.1-1-1.99-2-2.48q0.26-0.78 0.63-1.64c0.71-1.75 1.45-3.55 0.77-5.1q-0.59-1.32-2.45-1.99-0.1-0.04-0.21-0.04h-15.09q-0.09 0-0.19 0.03c-1.99 0.65-3.04 2.27-2.72 4.24 0.03 0.23 0.18 0.61 0.44 1.27q0.02 0.06 0.05 0.13c-3.23-1.13-6.71-0.95-9.73 0.53-0.25 0.12-2.14 1.21-2.47 1.62-0.34 0.43-0.43 1.08-0.22 1.66 0.18 0.5 0.55 0.85 1.02 0.95 0.87 0.19 1.5-0.3 2-0.69q0.26-0.21 0.51-0.36c2.7-1.52 5.84-1.66 8.6-0.38l10.09 5.3c-0.95 1.01-2.26 1.37-3.68 1-1.18-0.31-2.45-0.83-3.68-1.34-1.11-0.45-2.25-0.92-3.35-1.25q-0.03-0.01-0.07-0.01c-1.64-0.29-2.01 1.47-2.2 2.42q-0.08 0.43-0.18 0.74c-1.26 3.7-4.02 6.17-7.56 6.78-0.38 0.06-0.8 0.08-1.22 0.09q-0.62 0-1.2 0.08c-0.67 0.1-1.21 0.62-1.36 1.29-0.13 0.62 0.12 1.23 0.67 1.58q1.21 0.78 5.08-0.26c-0.84 1.98-1.72 4.54-1.94 7.28q-0.81-0.35-1.64-0.78c-0.8-0.4-1.62-0.81-2.5-1.11-3.09-1.06-6.22-1.02-9.25-0.99q-0.71 0.01-1.42 0.01v-14.26h8.42c0.76 0 4.33-3.03 4.36-3.06 0.55-0.6 0.64-1.21 0.27-1.93-0.28-0.54-0.69-0.72-0.98-0.77-1.04-0.2-2.22 0.84-3.26 1.76-0.29 0.26-0.61 0.54-0.81 0.68h-9.59c-0.73 0-1.45 0.87-1.46 0.88q-0.13 0.17-0.14 0.39v18.23q0.01 0.27 0.21 0.46l0.72 0.65q0.16 0.14 0.38 0.15c1.17 0.06 2.38 0.03 3.55 0.01 2.07-0.05 4.21-0.09 6.18 0.31 1.8 0.36 3.39 1.18 5.08 2.04q0.89 0.47 1.84 0.92zm28.64-24.11q-0.02 0.42-0.56 0.47c-0.44 0.04-3.49 0.04-4.26-0.03q-0.02-0.04-0.06-0.08c-0.22-0.3-0.55-0.74-1.02-0.88h5.69c0.1 0.06 0.23 0.27 0.21 0.52zm-12.04-3.7c-0.32-0.08-1.36-0.67-1.57-0.91-0.21-0.42-1.37-3.51-1.45-3.84-0.04-0.34 0.12-0.46 0.24-0.51l14.01-0.03c0.23 0.01 0.38 0.15 0.4 0.37-0.11 0.27-0.27 0.72-0.52 1.43-0.34 0.96-1.01 2.85-1.33 3.46l-9.79 0.02z"/>
	<path class="s0" d="m68.71 53.19l-0.01-0.09c-0.03-0.3-0.06-0.73-0.47-1.09-0.64-0.57-2.02-0.56-4.21-0.49-0.81 0.03-1.63 0.06-2.08 0-4.67-3.66-9.26-4.67-14.02-3.1-0.55 0.19-1.22 0.53-1.94 0.88-0.78 0.4-1.67 0.84-2.13 0.92-0.92 0.14-2.01 0.08-3.16 0.01-1.62-0.09-3.31-0.19-4.72 0.31-1.98 0.7-3.5 2.48-3.92 4.47l-13.33-3.46q-0.06-0.01-0.12-0.02c-2.54-0.09-4.13 1.63-4.59 3.39-0.45 1.72 0.1 3.96 2.32 5.08 1.57 0.79 3.39 1.4 5.14 1.98 1.42 0.47 2.89 0.95 4.16 1.52q0.07 0.04 0.15 0.05c0.78 0.13 1.48-0.26 1.75-0.97 0.27-0.75-0.02-1.56-0.72-1.97q-0.01-0.01-0.03-0.02c-1.37-0.69-2.95-1.2-4.48-1.7-1.51-0.5-3.08-1.01-4.37-1.68-0.81-0.42-0.98-1.06-0.87-1.51 0.11-0.44 0.54-0.94 1.41-0.96l16.09 4.25q0.1 0.02 0.22 0.01c1.54-0.15 3.34-0.05 5.08 0.03 2 0.11 4.07 0.21 5.85-0.04 0.63-0.09 1.18-0.44 1.45-0.93 0.23-0.4 0.25-0.87 0.05-1.31 0-0.01-0.5-0.93-1.05-0.93h-10.97q0.15-1.05 0.76-1.61c1.07-1 3.19-0.89 5.23-0.79 1.22 0.06 2.38 0.12 3.36-0.05 0.65-0.11 1.55-0.56 2.49-1.04 0.61-0.31 1.23-0.62 1.68-0.78 4.6-1.61 8.14 0.05 12.04 3.04q0.16 0.12 0.37 0.12h4.39v7.25q-0.86 0.01-1.73-0.03c-0.9-0.03-1.82-0.06-2.71 0.01-3.08 0.25-5.91 0.84-8.65 1.42-5.33 1.12-10.37 2.18-16.5 0.54-0.76-0.2-1.67-0.58-2.56-0.94-1.15-0.47-2.24-0.92-3.15-1.08-1.47-0.27-1.88 0.53-1.99 1.02-0.31 1.36 0.54 1.77 1.22 2.1 3.84 1.85 9.11 3.02 13.47 3.02q0.55 0 1.07-0.02c3.11-0.15 6.32-0.83 9.42-1.5 2.59-0.55 5.27-1.13 7.79-1.36 1-0.09 2.09-0.05 3.13-0.02 1.06 0.03 2.15 0.07 3.2-0.02q0.12-0.01 0.24-0.07c0.56-0.3 0.92-0.86 0.94-1.47q0-0.04 0-0.07c-0.11-1.55-0.05-3.25 0.02-4.89 0.07-1.81 0.14-3.68-0.02-5.41z"/>
	<path class="s0" d="m39.35 34.68q-0.61 0.51-1.82 0.51-1.13 0-1.8-0.57-0.48-0.4-0.73-1.13c-0.13-0.38-0.49-0.64-0.89-0.6l-0.78 0.08c-0.51 0.05-0.87 0.54-0.74 1.04q0.37 1.39 1.32 2.21 1.26 1.08 3.6 1.08 1.61 0 2.69-0.45 1.08-0.46 1.67-1.38 0.59-0.93 0.59-1.99 0-1.18-0.5-1.97-0.49-0.8-1.37-1.26-0.87-0.45-2.69-0.88-1.82-0.43-2.29-0.83-0.37-0.31-0.38-0.75 0-0.48 0.4-0.77 0.61-0.45 1.7-0.45 1.05 0 1.58 0.42 0.35 0.28 0.54 0.79c0.13 0.35 0.49 0.56 0.87 0.55l0.83-0.04c0.54-0.02 0.94-0.55 0.79-1.08q-0.29-1-1.08-1.69-1.18-1.02-3.51-1.01-1.42 0-2.43 0.43-1 0.43-1.54 1.25-0.53 0.82-0.53 1.77 0 1.47 1.14 2.49 0.81 0.72 2.81 1.22 1.56 0.39 2 0.54 0.64 0.23 0.9 0.53 0.25 0.31 0.26 0.75 0 0.68-0.62 1.19z"/>
	<path class="s0" d="m46.21 24.49h-0.03c-0.4 0-0.74 0.27-0.83 0.66l-2.64 11.09c-0.13 0.53 0.28 1.04 0.82 1.04 0.39 0 0.74-0.26 0.83-0.64l2.67-11.09c0.13-0.54-0.27-1.05-0.82-1.05z"/>
</svg>
